X: 127102
T: COUNTRY DANCE
P: Same figure.
%R: jig
B: James Kerr "Merry Melodies" v.1 p.27 s.1 #2
Z: 2017 John Chambers <jc:trillian.mit.edu>
N: The "Same figure" annotation is a mystery.
M: 6/8
L: 1/8
K: A
uE |\
vA2vc ecA | vF2vA uE2uE | EFE d2d | (c3 B2) uE |\
A2c ecA | F2A E2E | Edc BAG | (B3 A2) :|
ue |\
vf2vd dcd | ecA Ace | f2d dcd | e3 A2 e |\
f2d dcd | ecA Ace | agf edc | c3 "_D.C."B2 |]

%%sep 1 1 500
%%sep 1 1 500

